X: 60
T:Bobby Garddiners Reel
T:Ash Plant
R:Reel
D:Sanctuary Session, Ennis
M:C
L:1/8
K:D
|dB| AF ~F2 BFAF| DEFA BABd| eB ~B2 egfe| dfed BcdB|
AF ~F2 BFAF|DEFA BABd| egfg efdB|AFGE D2 :|
|A2|~d2 de fefg|afbf afdf| eB ~B2 gB ~B2| fedf edBd|
AF ~F2 ABdf| afbfafdf| ~g2 fg efdB| AFGE D2 :|
